packages/core/assets/Icons/timeline.svg

<svg viewBox="0 0 20 20" fill="none" xmlns="http://www.w3.org/2000/svg">
<path d="M2.49992 15C2.04159 15 1.64922 14.8368 1.32284 14.5104C0.996446 14.184 0.833252 13.7917 0.833252 13.3333C0.833252 12.875 0.996446 12.4826 1.32284 12.1562C1.64922 11.8299 2.04159 11.6667 2.49992 11.6667H2.71867C2.78117 11.6667 2.84714 11.6806 2.91659 11.7083L6.70825 7.91667C6.68047 7.84722 6.66659 7.78125 6.66659 7.71875V7.5C6.66659 7.04167 6.82978 6.64931 7.15617 6.32292C7.48256 5.99653 7.87492 5.83333 8.33325 5.83333C8.79159 5.83333 9.18395 5.99653 9.51034 6.32292C9.83672 6.64931 9.99992 7.04167 9.99992 7.5C9.99992 7.52778 9.98603 7.66667 9.95825 7.91667L12.0833 10.0417C12.1527 10.0139 12.2187 10 12.2812 10H12.7187C12.7812 10 12.8471 10.0139 12.9166 10.0417L15.8749 7.08333C15.8471 7.01389 15.8333 6.94792 15.8333 6.88542V6.66667C15.8333 6.20833 15.9964 5.81597 16.3228 5.48958C16.6492 5.16319 17.0416 5 17.4999 5C17.9583 5 18.3506 5.16319 18.677 5.48958C19.0034 5.81597 19.1666 6.20833 19.1666 6.66667C19.1666 7.125 19.0034 7.51736 18.677 7.84375C18.3506 8.17014 17.9583 8.33333 17.4999 8.33333H17.2812C17.2187 8.33333 17.1527 8.31944 17.0833 8.29167L14.1249 11.25C14.1527 11.3194 14.1666 11.3854 14.1666 11.4479V11.6667C14.1666 12.125 14.0034 12.5174 13.677 12.8438C13.3506 13.1701 12.9583 13.3333 12.4999 13.3333C12.0416 13.3333 11.6492 13.1701 11.3228 12.8438C10.9964 12.5174 10.8333 12.125 10.8333 11.6667V11.4479C10.8333 11.3854 10.8471 11.3194 10.8749 11.25L8.74992 9.125C8.68047 9.15278 8.6145 9.16667 8.552 9.16667H8.33325C8.30547 9.16667 8.16659 9.15278 7.91659 9.125L4.12492 12.9167C4.1527 12.9861 4.16659 13.0521 4.16659 13.1146V13.3333C4.16659 13.7917 4.00339 14.184 3.677 14.5104C3.35061 14.8368 2.95825 15 2.49992 15Z" fill="currentColor"/>
</svg>

<svg xmlns="http://www.w3.org/2000/svg" width="20" height="20" fill="none" viewBox="0 0 20 20">
  <path fill="#201F1F" d="M2.5 15c-.458 0-.85-.163-1.177-.49a1.605 1.605 0 0 1-.49-1.177c0-.458.163-.85.49-1.177.326-.326.719-.49 1.177-.49h.219c.062 0 .128.015.198.042l3.791-3.791a.533.533 0 0 1-.041-.198V7.5c0-.458.163-.85.49-1.177.326-.326.718-.49 1.176-.49.459 0 .85.164 1.177.49.327.326.49.719.49 1.177 0 .028-.014.167-.042.417l2.125 2.125a.533.533 0 0 1 .198-.042h.438c.062 0 .128.014.198.042l2.958-2.959a.533.533 0 0 1-.042-.198v-.218c0-.459.163-.851.49-1.177.326-.327.719-.49 1.177-.49.458 0 .85.163 1.177.49.326.326.49.718.49 1.177 0 .458-.164.85-.49 1.177-.326.326-.719.49-1.177.49h-.219a.533.533 0 0 1-.198-.042l-2.958 2.958a.53.53 0 0 1 .042.198v.219c0 .458-.164.85-.49 1.177-.326.326-.719.49-1.177.49-.458 0-.85-.164-1.177-.49a1.605 1.605 0 0 1-.49-1.177v-.22c0-.062.014-.128.042-.197L8.75 9.125a.533.533 0 0 1-.198.042h-.219c-.028 0-.166-.014-.416-.042l-3.792 3.792a.53.53 0 0 1 .042.198v.218c0 .459-.164.851-.49 1.177-.326.327-.719.49-1.177.49Z"/>
</svg>
